course_UvA-DL/introduction-to-pytorch/small_neural_network.svg

<svg xmlns="http://www.w3.org/2000/svg" xmlns:xlink="http://www.w3.org/1999/xlink" width="205" height="151" viewBox="-0.5 -0.5 205 151" xmlns:v="https://vecta.io/nano"><style><![CDATA[.B{pointer-events:all}.C{pointer-events:stroke}.D{fill:none}.E{stroke:#000}.F{stroke-miterlimit:10}.G{stroke:#36393d}.H{fill:#f9f7ed}.I{text-anchor:middle}.J{font-family:Helvetica}]]></style><g class="E F"><path d="M28.14 40.53l55.97-23.1" class="C D"/><path d="M88.97 15.43l-5.14 5.9.28-3.9-2.95-2.57z" class="B"/><path d="M29.61 47.4l54.07 6.8" class="C D"/><path d="M88.89 54.86l-7.38 2.6 2.17-3.26-1.3-3.69z" class="B"/><path d="M28.05 51.72l56.29 35.53" class="C D"/><path d="M88.78 90.05L81 89.28l3.34-2.03.39-3.89z" class="B"/></g><circle cx="15" cy="45" fill="#cce5ff" r="15" class="B G"/><text x="14.5" y="49.5" fill="#000" font-size="15" class="I J">x1</text><g class="E F"><path d="M25.61 94.39l64.28-64.28" class="C D"/><path d="M93.6 26.4l-2.47 7.42-1.24-3.71-3.71-1.24z" class="B"/><path d="M29.61 99.6l55.15-36.13" class="C D"/><path d="M89.15 60.59l-3.93 6.77-.46-3.89-3.38-1.97z" class="B"/><path d="M30 105l53.09-7.44" class="C D"/><path d="M88.29 96.84l-6.44 4.43 1.24-3.71-2.22-3.22z" class="B"/><path d="M28.59 112.17l55.44 20.61" class="C D"/><path d="M88.95 134.61l-7.78.84 2.86-2.67-.42-3.89z" class="B"/></g><circle cx="15" cy="105" fill="#cce5ff" r="15" class="B G"/><text x="14.5" y="109.5" fill="#000" font-size="15" class="I J">x2</text><g class="E F"><path d="M115.61 25.61l55.61 39.8" class="C D"/><path d="M175.49 68.47l-7.73-1.23 3.46-1.83.62-3.86z" class="B"/></g><circle cx="105" cy="15" r="15" class="B G H"/><g class="E F"><path d="M119.85 60.22l48.11 10.51" class="C D"/><path d="M173.09 71.85l-7.59 1.93 2.46-3.05-.96-3.79z" class="B"/></g><circle cx="105" cy="55" r="15" class="B G H"/><g class="E F"><path d="M120 95l48.48-14.04" class="C D"/><path d="M173.52 79.5l-5.75 5.31.71-3.85-2.65-2.88z" class="B"/></g><circle cx="105" cy="95" r="15" class="B G H"/><g class="E F"><path d="M120 135l52.89-45.96" class="C D"/><path d="M176.85 85.59l-2.99 7.24-.97-3.79-3.62-1.5z" class="B"/></g><circle cx="105" cy="135" r="15" class="B G H"/><g class="E F"><path d="M25.61 55.61l61.67 69.56" class="C D"/><path d="M90.76 129.09l-7.26-2.91 3.78-1.01 1.45-3.64z" class="B"/><g class="D C"><use xlink:href="#B"/><use xlink:href="#B" y="40"/><use xlink:href="#B" y="80"/><use xlink:href="#B" y="120"/></g></g><circle cx="189" cy="75" fill="#fcc" r="15" class="B G"/><switch><a transform="translate(0 -5)" xlink:href="https://desk.draw.io/support/solutions/articles/16000042487" target="_blank"><text font-size="10" x="50%" y="100%" class="I">Viewer does not support full SVG 1.1</text></a></switch><defs ><path id="B" d="M95 22.5q10 0 10-7.5 0-7.5 10-7.5"/></defs></svg>

<?xml version="1.0" encoding="UTF-8"?>
<!DOCTYPE svg PUBLIC "-//W3C//DTD SVG 1.1//EN" "http://www.w3.org/Graphics/SVG/1.1/DTD/svg11.dtd">
<svg xmlns="http://www.w3.org/2000/svg" xmlns:xlink="http://www.w3.org/1999/xlink" version="1.1" width="205px" height="151px" viewBox="-0.5 -0.5 205 151"><defs/><g><path d="M 28.14 40.53 L 84.11 17.43" fill="none" stroke="#000000" stroke-miterlimit="10" pointer-events="stroke"/><path d="M 88.97 15.43 L 83.83 21.33 L 84.11 17.43 L 81.16 14.86 Z" fill="#000000" stroke="#000000" stroke-miterlimit="10" pointer-events="all"/><path d="M 29.61 47.4 L 83.68 54.2" fill="none" stroke="#000000" stroke-miterlimit="10" pointer-events="stroke"/><path d="M 88.89 54.86 L 81.51 57.46 L 83.68 54.2 L 82.38 50.51 Z" fill="#000000" stroke="#000000" stroke-miterlimit="10" pointer-events="all"/><path d="M 28.05 51.72 L 84.34 87.25" fill="none" stroke="#000000" stroke-miterlimit="10" pointer-events="stroke"/><path d="M 88.78 90.05 L 81 89.28 L 84.34 87.25 L 84.73 83.36 Z" fill="#000000" stroke="#000000" stroke-miterlimit="10" pointer-events="all"/><ellipse cx="15" cy="45" rx="15" ry="15" fill="#cce5ff" stroke="#36393d" pointer-events="all"/><g transform="translate(-0.5 -0.5)"><switch><foreignObject style="overflow: visible; text-align: left;" pointer-events="none" width="100%" height="100%" requiredFeatures="http://www.w3.org/TR/SVG11/feature#Extensibility"><div xmlns="http://www.w3.org/1999/xhtml" style="display: flex; align-items: unsafe center; justify-content: unsafe center; width: 28px; height: 1px; padding-top: 45px; margin-left: 1px;"><div style="box-sizing: border-box; font-size: 0; text-align: center; "><div style="display: inline-block; font-size: 15px; font-family: Helvetica; color: #000000; line-height: 1.2; pointer-events: all; white-space: normal; word-wrap: normal; ">x<sub><font style="font-size: 10.5px">1</font></sub></div></div></div></foreignObject><text x="15" y="50" fill="#000000" font-family="Helvetica" font-size="15px" text-anchor="middle">x1</text></switch></g><path d="M 25.61 94.39 L 89.89 30.11" fill="none" stroke="#000000" stroke-miterlimit="10" pointer-events="stroke"/><path d="M 93.6 26.4 L 91.13 33.82 L 89.89 30.11 L 86.18 28.87 Z" fill="#000000" stroke="#000000" stroke-miterlimit="10" pointer-events="all"/><path d="M 29.61 99.6 L 84.76 63.47" fill="none" stroke="#000000" stroke-miterlimit="10" pointer-events="stroke"/><path d="M 89.15 60.59 L 85.22 67.36 L 84.76 63.47 L 81.38 61.5 Z" fill="#000000" stroke="#000000" stroke-miterlimit="10" pointer-events="all"/><path d="M 30 105 L 83.09 97.56" fill="none" stroke="#000000" stroke-miterlimit="10" pointer-events="stroke"/><path d="M 88.29 96.84 L 81.85 101.27 L 83.09 97.56 L 80.87 94.34 Z" fill="#000000" stroke="#000000" stroke-miterlimit="10" pointer-events="all"/><path d="M 28.59 112.17 L 84.03 132.78" fill="none" stroke="#000000" stroke-miterlimit="10" pointer-events="stroke"/><path d="M 88.95 134.61 L 81.17 135.45 L 84.03 132.78 L 83.61 128.89 Z" fill="#000000" stroke="#000000" stroke-miterlimit="10" pointer-events="all"/><ellipse cx="15" cy="105" rx="15" ry="15" fill="#cce5ff" stroke="#36393d" pointer-events="all"/><g transform="translate(-0.5 -0.5)"><switch><foreignObject style="overflow: visible; text-align: left;" pointer-events="none" width="100%" height="100%" requiredFeatures="http://www.w3.org/TR/SVG11/feature#Extensibility"><div xmlns="http://www.w3.org/1999/xhtml" style="display: flex; align-items: unsafe center; justify-content: unsafe center; width: 28px; height: 1px; padding-top: 105px; margin-left: 1px;"><div style="box-sizing: border-box; font-size: 0; text-align: center; "><div style="display: inline-block; font-size: 15px; font-family: Helvetica; color: #000000; line-height: 1.2; pointer-events: all; white-space: normal; word-wrap: normal; ">x<span style="font-size: 12.5px"><sub>2</sub></span></div></div></div></foreignObject><text x="15" y="110" fill="#000000" font-family="Helvetica" font-size="15px" text-anchor="middle">x2</text></switch></g><path d="M 115.61 25.61 L 171.22 65.41" fill="none" stroke="#000000" stroke-miterlimit="10" pointer-events="stroke"/><path d="M 175.49 68.47 L 167.76 67.24 L 171.22 65.41 L 171.84 61.55 Z" fill="#000000" stroke="#000000" stroke-miterlimit="10" pointer-events="all"/><ellipse cx="105" cy="15" rx="15" ry="15" fill="#f9f7ed" stroke="#36393d" pointer-events="all"/><path d="M 119.85 60.22 L 167.96 70.73" fill="none" stroke="#000000" stroke-miterlimit="10" pointer-events="stroke"/><path d="M 173.09 71.85 L 165.5 73.78 L 167.96 70.73 L 167 66.94 Z" fill="#000000" stroke="#000000" stroke-miterlimit="10" pointer-events="all"/><ellipse cx="105" cy="55" rx="15" ry="15" fill="#f9f7ed" stroke="#36393d" pointer-events="all"/><path d="M 120 95 L 168.48 80.96" fill="none" stroke="#000000" stroke-miterlimit="10" pointer-events="stroke"/><path d="M 173.52 79.5 L 167.77 84.81 L 168.48 80.96 L 165.83 78.08 Z" fill="#000000" stroke="#000000" stroke-miterlimit="10" pointer-events="all"/><ellipse cx="105" cy="95" rx="15" ry="15" fill="#f9f7ed" stroke="#36393d" pointer-events="all"/><path d="M 120 135 L 172.89 89.04" fill="none" stroke="#000000" stroke-miterlimit="10" pointer-events="stroke"/><path d="M 176.85 85.59 L 173.86 92.83 L 172.89 89.04 L 169.27 87.54 Z" fill="#000000" stroke="#000000" stroke-miterlimit="10" pointer-events="all"/><ellipse cx="105" cy="135" rx="15" ry="15" fill="#f9f7ed" stroke="#36393d" pointer-events="all"/><path d="M 25.61 55.61 L 87.28 125.17" fill="none" stroke="#000000" stroke-miterlimit="10" pointer-events="stroke"/><path d="M 90.76 129.09 L 83.5 126.18 L 87.28 125.17 L 88.73 121.53 Z" fill="#000000" stroke="#000000" stroke-miterlimit="10" pointer-events="all"/><path d="M 95 22.5 Q 105 22.5 105 15 Q 105 7.5 115 7.5" fill="none" stroke="#000000" stroke-miterlimit="10" pointer-events="stroke"/><path d="M 95 62.5 Q 105 62.5 105 55 Q 105 47.5 115 47.5" fill="none" stroke="#000000" stroke-miterlimit="10" pointer-events="stroke"/><path d="M 95 102.5 Q 105 102.5 105 95 Q 105 87.5 115 87.5" fill="none" stroke="#000000" stroke-miterlimit="10" pointer-events="stroke"/><path d="M 95 142.5 Q 105 142.5 105 135 Q 105 127.5 115 127.5" fill="none" stroke="#000000" stroke-miterlimit="10" pointer-events="stroke"/><ellipse cx="189" cy="75" rx="15" ry="15" fill="#ffcccc" stroke="#36393d" pointer-events="all"/></g><switch><g requiredFeatures="http://www.w3.org/TR/SVG11/feature#Extensibility"/><a transform="translate(0,-5)" xlink:href="https://desk.draw.io/support/solutions/articles/16000042487" target="_blank"><text text-anchor="middle" font-size="10px" x="50%" y="100%">Viewer does not support full SVG 1.1</text></a></switch></svg>
